src/assets/deezer.svg

<svg width="95" height="19" viewBox="0 0 95 19" fill="none" xmlns="http://www.w3.org/2000/svg">
<path d="M54.9461 15.9732C53.182 15.9732 51.7308 14.882 51.7046 12.9652H60.0581C60.1675 12.4584 60.2225 11.9408 60.2219 11.4217C60.2219 7.95962 57.914 5.75024 54.5169 5.75024C50.8856 5.75024 48.396 8.65235 48.396 12.2455C48.396 16.2389 51.0937 18.9023 54.9051 18.9023C57.7846 18.9023 59.7812 17.4109 60.6379 14.961L57.7994 13.8227C57.4095 15.2553 56.4497 15.9732 54.9461 15.9732ZM54.5055 8.49263C55.9796 8.49263 56.9951 9.31821 56.9951 10.5961L56.9689 10.702H51.7046C52.0158 9.31821 53.1575 8.49263 54.5055 8.49263Z" fill="white"/>
<path d="M71.6973 8.81231V6.01611H60.9868V8.94514H67.5222L60.7788 15.7078V18.6351H71.8791V15.5733H64.9277L71.6973 8.81231Z" fill="white"/>
<path d="M91.7013 10.09C91.7023 10.302 91.6886 10.5138 91.6604 10.7239H94.8069C94.8834 10.3133 94.92 9.89594 94.9166 9.47794C94.9166 7.32069 93.5948 5.75024 91.3901 5.75024C89.9635 5.75024 88.9529 6.46987 88.4337 7.64014V6.01759H85.1152V18.6282H88.4337V10.5154C88.4337 9.2375 89.1085 8.51954 90.1453 8.51954C91.0789 8.51954 91.7013 9.15847 91.7013 10.09Z" fill="white"/>
<path d="M31.9394 7.9077C31.186 6.60292 29.7855 5.75044 28.0493 5.75044C24.6768 5.75044 22.2134 8.41381 22.2134 12.3803C22.2134 16.2929 24.6523 18.9025 28.1263 18.9025C29.8642 18.9025 31.2646 18.129 32.0688 16.8259V18.6351H35.2579V0H31.9394V7.9077ZM28.7995 16.0088C26.9585 16.0088 25.5236 14.625 25.5236 12.3887C25.5236 10.1255 26.9503 8.68956 28.7995 8.68956C30.5881 8.68956 32.0672 10.1272 32.0672 12.3887C32.0672 14.6165 30.5881 16.0088 28.7995 16.0088Z" fill="white"/>
<path d="M78.5896 15.9732C76.8256 15.9732 75.3744 14.882 75.3482 12.9652H83.7016C83.8112 12.4584 83.8661 11.9408 83.8654 11.4217C83.8654 7.95962 81.5576 5.75024 78.1605 5.75024C74.5292 5.75024 72.0396 8.65235 72.0396 12.2455C72.0396 16.2389 74.7372 18.9023 78.5487 18.9023C81.4282 18.9023 83.4248 17.4109 84.2814 14.961L81.4413 13.8227C81.0531 15.2553 80.0949 15.9732 78.5896 15.9732ZM78.149 8.49263C79.6232 8.49263 80.6387 9.31821 80.6387 10.5961L80.6125 10.702H75.3449C75.6594 9.31821 76.7994 8.49263 78.149 8.49263Z" fill="white"/>
<path d="M42.6896 15.9732C40.9256 15.9732 39.4744 14.882 39.4482 12.9652H47.8016C47.9092 12.4582 47.9613 11.9405 47.9572 11.4217C47.9572 7.95962 45.6494 5.75024 42.2523 5.75024C38.621 5.75024 36.1313 8.65235 36.1313 12.2455C36.1313 16.2389 38.829 18.9023 42.6405 18.9023C45.52 18.9023 47.5166 17.4109 48.3733 14.961L45.5429 13.8227C45.1531 15.2553 44.1933 15.9732 42.6896 15.9732ZM42.249 8.49263C43.7232 8.49263 44.7387 9.31821 44.7387 10.5961L44.7125 10.702H39.4482C39.7594 9.31821 40.901 8.49263 42.249 8.49263Z" fill="white"/>
<path d="M18.8932 6.00781H14.8262V8.44418H18.8932V6.00781Z" fill="#29AB70"/>
<path d="M18.8932 9.40088H14.8262V11.8372H18.8932V9.40088Z" fill="url(#paint0_linear)"/>
<path d="M18.8932 12.792H14.8262V15.2284H18.8932V12.792Z" fill="url(#paint1_linear)"/>
<path d="M4.15048 16.1853H0.0834961V18.6217H4.15048V16.1853Z" fill="url(#paint2_linear)"/>
<path d="M9.06454 16.1853H4.99756V18.6217H9.06454V16.1853Z" fill="url(#paint3_linear)"/>
<path d="M13.9796 16.1853H9.9126V18.6217H13.9796V16.1853Z" fill="url(#paint4_linear)"/>
<path d="M18.8932 16.1853H14.8262V18.6217H18.8932V16.1853Z" fill="url(#paint5_linear)"/>
<path d="M13.9796 12.792H9.9126V15.2284H13.9796V12.792Z" fill="url(#paint6_linear)"/>
<path d="M9.06454 12.792H4.99756V15.2284H9.06454V12.792Z" fill="url(#paint7_linear)"/>
<path d="M9.06454 9.40088H4.99756V11.8372H9.06454V9.40088Z" fill="url(#paint8_linear)"/>
<path d="M54.9461 15.9732C53.182 15.9732 51.7308 14.882 51.7046 12.9652H60.0581C60.1675 12.4584 60.2225 11.9408 60.2219 11.4217C60.2219 7.95963 57.914 5.75024 54.5169 5.75024C50.8857 5.75024 48.396 8.65235 48.396 12.2455C48.396 16.2389 51.0937 18.9023 54.9051 18.9023C57.7846 18.9023 59.7813 17.4109 60.6379 14.961L57.7994 13.8227C57.4095 15.2553 56.4497 15.9732 54.9461 15.9732ZM54.5055 8.49263C55.9796 8.49263 56.9951 9.31821 56.9951 10.5961L56.9689 10.702H51.7046C52.0158 9.31821 53.1575 8.49263 54.5055 8.49263Z" fill="white"/>
<path d="M71.6973 8.81231V6.01611H60.9868V8.94514H67.5222L60.7788 15.7078V18.6351H71.8791V15.5733H64.9277L71.6973 8.81231Z" fill="white"/>
<path d="M91.7013 10.09C91.7023 10.302 91.6886 10.5138 91.6604 10.7239H94.8069C94.8834 10.3133 94.92 9.89594 94.9166 9.47794C94.9166 7.32069 93.5948 5.75024 91.3901 5.75024C89.9635 5.75024 88.9529 6.46987 88.4337 7.64014V6.01759H85.1152V18.6282H88.4337V10.5154C88.4337 9.2375 89.1085 8.51954 90.1453 8.51954C91.0789 8.51954 91.7013 9.15847 91.7013 10.09Z" fill="white"/>
<path d="M31.9394 7.9077C31.186 6.60292 29.7855 5.75044 28.0493 5.75044C24.6768 5.75044 22.2134 8.41381 22.2134 12.3803C22.2134 16.2929 24.6523 18.9025 28.1263 18.9025C29.8642 18.9025 31.2646 18.129 32.0688 16.8259V18.6351H35.2579V0H31.9394V7.9077ZM28.7995 16.0088C26.9585 16.0088 25.5236 14.625 25.5236 12.3887C25.5236 10.1255 26.9503 8.68956 28.7995 8.68956C30.5881 8.68956 32.0672 10.1272 32.0672 12.3887C32.0672 14.6165 30.5881 16.0088 28.7995 16.0088Z" fill="white"/>
<path d="M78.5896 15.9732C76.8256 15.9732 75.3744 14.882 75.3482 12.9652H83.7016C83.8112 12.4584 83.8661 11.9408 83.8654 11.4217C83.8654 7.95962 81.5576 5.75024 78.1605 5.75024C74.5292 5.75024 72.0396 8.65235 72.0396 12.2455C72.0396 16.2389 74.7372 18.9023 78.5487 18.9023C81.4282 18.9023 83.4248 17.4109 84.2814 14.961L81.4413 13.8227C81.0531 15.2553 80.0949 15.9732 78.5896 15.9732ZM78.149 8.49263C79.6232 8.49263 80.6387 9.31821 80.6387 10.5961L80.6125 10.702H75.3449C75.6594 9.31821 76.7994 8.49263 78.149 8.49263Z" fill="white"/>
<path d="M42.6896 15.9732C40.9256 15.9732 39.4744 14.882 39.4482 12.9652H47.8016C47.9092 12.4582 47.9613 11.9405 47.9572 11.4217C47.9572 7.95962 45.6494 5.75024 42.2523 5.75024C38.621 5.75024 36.1313 8.65235 36.1313 12.2455C36.1313 16.2389 38.829 18.9023 42.6405 18.9023C45.52 18.9023 47.5166 17.4109 48.3733 14.961L45.5429 13.8227C45.1531 15.2553 44.1933 15.9732 42.6896 15.9732ZM42.249 8.49263C43.7232 8.49263 44.7387 9.31821 44.7387 10.5961L44.7125 10.702H39.4482C39.7594 9.31821 40.901 8.49263 42.249 8.49263Z" fill="white"/>
<defs>
<linearGradient id="paint0_linear" x1="17.1243" y1="12.1567" x2="16.5677" y2="9.08472" gradientUnits="userSpaceOnUse">
<stop stop-color="#2C8C9D"/>
<stop offset="0.04" stop-color="#298E9A"/>
<stop offset="0.39" stop-color="#129C83"/>
<stop offset="0.72" stop-color="#05A475"/>
<stop offset="1" stop-color="#00A770"/>
</linearGradient>
<linearGradient id="paint1_linear" x1="14.7656" y1="15.1056" x2="18.9984" y2="13.0045" gradientUnits="userSpaceOnUse">
<stop stop-color="#2839BA"/>
<stop offset="1" stop-color="#148CB3"/>
</linearGradient>
<linearGradient id="paint2_linear" x1="0.0834961" y1="17.4026" x2="4.15048" y2="17.4026" gradientUnits="userSpaceOnUse">
<stop stop-color="#F6A500"/>
<stop offset="1" stop-color="#F29100"/>
</linearGradient>
<linearGradient id="paint3_linear" x1="4.99756" y1="17.4026" x2="9.06454" y2="17.4026" gradientUnits="userSpaceOnUse">
<stop stop-color="#F29100"/>
<stop offset="1" stop-color="#D12F5F"/>
</linearGradient>
<linearGradient id="paint4_linear" x1="9.9126" y1="17.4026" x2="13.9796" y2="17.4026" gradientUnits="userSpaceOnUse">
<stop stop-color="#B4197C"/>
<stop offset="1" stop-color="#472EAD"/>
</linearGradient>
<linearGradient id="paint5_linear" x1="14.8262" y1="17.4026" x2="18.8932" y2="17.4026" gradientUnits="userSpaceOnUse">
<stop stop-color="#2839BA"/>
<stop offset="1" stop-color="#3072B7"/>
</linearGradient>
<linearGradient id="paint6_linear" x1="9.75208" y1="14.6685" x2="14.1562" y2="13.4141" gradientUnits="userSpaceOnUse">
<stop stop-color="#B4197C"/>
<stop offset="1" stop-color="#373AAC"/>
</linearGradient>
<linearGradient id="paint7_linear" x1="4.85506" y1="13.1972" x2="9.23482" y2="14.7494" gradientUnits="userSpaceOnUse">
<stop stop-color="#FFCB00"/>
<stop offset="1" stop-color="#D12F5F"/>
</linearGradient>
<linearGradient id="paint8_linear" x1="5.34152" y1="9.01752" x2="8.80184" y2="12.1285" gradientUnits="userSpaceOnUse">
<stop stop-color="#FFCF00"/>
<stop offset="1" stop-color="#ED743B"/>
</linearGradient>
</defs>
</svg>

<svg width="95" height="19" fill="none" xmlns="http://www.w3.org/2000/svg"><path d="M54.946 15.973c-1.764 0-3.215-1.091-3.241-3.008h8.353c.11-.507.164-1.024.164-1.543 0-3.462-2.308-5.672-5.705-5.672-3.631 0-6.121 2.902-6.121 6.495 0 3.994 2.698 6.657 6.51 6.657 2.879 0 4.875-1.491 5.732-3.941l-2.839-1.138c-.39 1.432-1.35 2.15-2.853 2.15zm-.44-7.48c1.474 0 2.49.825 2.49 2.103l-.027.106h-5.264c.31-1.384 1.453-2.21 2.8-2.21zM71.697 8.812V6.016h-10.71v2.93h6.535l-6.743 6.762v2.927h11.1v-3.062h-6.951l6.77-6.76zM91.701 10.09c.001.212-.012.424-.04.634h3.146c.076-.41.113-.828.11-1.246 0-2.157-1.322-3.728-3.527-3.728-1.427 0-2.437.72-2.956 1.89V6.018h-3.319v12.61h3.319v-8.113c0-1.277.675-1.995 1.711-1.995.934 0 1.556.638 1.556 1.57zM31.94 7.908c-.754-1.305-2.155-2.158-3.89-2.158-3.373 0-5.837 2.664-5.837 6.63 0 3.913 2.44 6.522 5.913 6.522 1.738 0 3.139-.773 3.943-2.076v1.81h3.189V0h-3.319v7.908zm-3.14 8.1c-1.841 0-3.276-1.383-3.276-3.62 0-2.262 1.426-3.698 3.275-3.698 1.79 0 3.268 1.437 3.268 3.699 0 2.228-1.479 3.62-3.268 3.62zM78.59 15.973c-1.764 0-3.216-1.091-3.242-3.008h8.354c.11-.507.164-1.024.163-1.543 0-3.462-2.307-5.672-5.704-5.672-3.632 0-6.121 2.902-6.121 6.495 0 3.994 2.697 6.657 6.509 6.657 2.88 0 4.876-1.491 5.732-3.941l-2.84-1.138c-.388 1.432-1.346 2.15-2.851 2.15zm-.441-7.48c1.474 0 2.49.825 2.49 2.103l-.026.106h-5.268c.314-1.384 1.454-2.21 2.804-2.21zM42.69 15.973c-1.764 0-3.216-1.091-3.242-3.008h8.354c.107-.507.16-1.024.155-1.543 0-3.462-2.308-5.672-5.705-5.672-3.631 0-6.12 2.902-6.12 6.495 0 3.994 2.697 6.657 6.509 6.657 2.879 0 4.876-1.491 5.732-3.941l-2.83-1.138c-.39 1.432-1.35 2.15-2.853 2.15zm-.441-7.48c1.474 0 2.49.825 2.49 2.103l-.026.106h-5.265c.311-1.384 1.453-2.21 2.801-2.21z" fill="#fff"/><path d="M18.893 6.008h-4.067v2.436h4.067V6.008z" fill="#29AB70"/><path d="M18.893 9.4h-4.067v2.437h4.067V9.401z" fill="url(#paint0_linear)"/><path d="M18.893 12.792h-4.067v2.436h4.067v-2.436z" fill="url(#paint1_linear)"/><path d="M4.15 16.185H.083v2.437H4.15v-2.437z" fill="url(#paint2_linear)"/><path d="M9.065 16.185H4.998v2.437h4.067v-2.437z" fill="url(#paint3_linear)"/><path d="M13.98 16.185H9.913v2.437h4.067v-2.437z" fill="url(#paint4_linear)"/><path d="M18.893 16.185h-4.067v2.437h4.067v-2.437z" fill="url(#paint5_linear)"/><path d="M13.98 12.792H9.913v2.436h4.067v-2.436z" fill="url(#paint6_linear)"/><path d="M9.065 12.792H4.998v2.436h4.067v-2.436z" fill="url(#paint7_linear)"/><path d="M9.065 9.4H4.998v2.437h4.067V9.401z" fill="url(#paint8_linear)"/><path d="M54.946 15.973c-1.764 0-3.215-1.091-3.241-3.008h8.353c.11-.507.164-1.024.164-1.543 0-3.462-2.308-5.672-5.705-5.672-3.631 0-6.121 2.902-6.121 6.495 0 3.994 2.698 6.657 6.51 6.657 2.879 0 4.875-1.491 5.732-3.941l-2.839-1.138c-.39 1.432-1.35 2.15-2.853 2.15zm-.44-7.48c1.474 0 2.49.825 2.49 2.103l-.027.106h-5.264c.31-1.384 1.453-2.21 2.8-2.21zM71.697 8.812V6.016h-10.71v2.93h6.535l-6.743 6.762v2.927h11.1v-3.062h-6.951l6.77-6.76zM91.701 10.09c.001.212-.012.424-.04.634h3.146c.076-.41.113-.828.11-1.246 0-2.157-1.322-3.728-3.527-3.728-1.427 0-2.437.72-2.956 1.89V6.018h-3.319v12.61h3.319v-8.113c0-1.277.675-1.995 1.711-1.995.934 0 1.556.638 1.556 1.57zM31.94 7.908c-.754-1.305-2.155-2.158-3.89-2.158-3.373 0-5.837 2.664-5.837 6.63 0 3.913 2.44 6.522 5.913 6.522 1.738 0 3.139-.773 3.943-2.076v1.81h3.189V0h-3.319v7.908zm-3.14 8.1c-1.841 0-3.276-1.383-3.276-3.62 0-2.262 1.426-3.698 3.275-3.698 1.79 0 3.268 1.437 3.268 3.699 0 2.228-1.479 3.62-3.268 3.62zM78.59 15.973c-1.764 0-3.216-1.091-3.242-3.008h8.354c.11-.507.164-1.024.163-1.543 0-3.462-2.307-5.672-5.704-5.672-3.632 0-6.121 2.902-6.121 6.495 0 3.994 2.697 6.657 6.509 6.657 2.88 0 4.876-1.491 5.732-3.941l-2.84-1.138c-.388 1.432-1.346 2.15-2.851 2.15zm-.441-7.48c1.474 0 2.49.825 2.49 2.103l-.026.106h-5.268c.314-1.384 1.454-2.21 2.804-2.21zM42.69 15.973c-1.764 0-3.216-1.091-3.242-3.008h8.354c.107-.507.16-1.024.155-1.543 0-3.462-2.308-5.672-5.705-5.672-3.631 0-6.12 2.902-6.12 6.495 0 3.994 2.697 6.657 6.509 6.657 2.879 0 4.876-1.491 5.732-3.941l-2.83-1.138c-.39 1.432-1.35 2.15-2.853 2.15zm-.441-7.48c1.474 0 2.49.825 2.49 2.103l-.026.106h-5.265c.311-1.384 1.453-2.21 2.801-2.21z" fill="#fff"/><defs><linearGradient id="paint0_linear" x1="17.124" y1="12.157" x2="16.568" y2="9.085" gradientUnits="userSpaceOnUse"><stop stop-color="#2C8C9D"/><stop offset=".04" stop-color="#298E9A"/><stop offset=".39" stop-color="#129C83"/><stop offset=".72" stop-color="#05A475"/><stop offset="1" stop-color="#00A770"/></linearGradient><linearGradient id="paint1_linear" x1="14.766" y1="15.106" x2="18.998" y2="13.005" gradientUnits="userSpaceOnUse"><stop stop-color="#2839BA"/><stop offset="1" stop-color="#148CB3"/></linearGradient><linearGradient id="paint2_linear" x1=".083" y1="17.403" x2="4.15" y2="17.403" gradientUnits="userSpaceOnUse"><stop stop-color="#F6A500"/><stop offset="1" stop-color="#F29100"/></linearGradient><linearGradient id="paint3_linear" x1="4.998" y1="17.403" x2="9.065" y2="17.403" gradientUnits="userSpaceOnUse"><stop stop-color="#F29100"/><stop offset="1" stop-color="#D12F5F"/></linearGradient><linearGradient id="paint4_linear" x1="9.913" y1="17.403" x2="13.98" y2="17.403" gradientUnits="userSpaceOnUse"><stop stop-color="#B4197C"/><stop offset="1" stop-color="#472EAD"/></linearGradient><linearGradient id="paint5_linear" x1="14.826" y1="17.403" x2="18.893" y2="17.403" gradientUnits="userSpaceOnUse"><stop stop-color="#2839BA"/><stop offset="1" stop-color="#3072B7"/></linearGradient><linearGradient id="paint6_linear" x1="9.752" y1="14.668" x2="14.156" y2="13.414" gradientUnits="userSpaceOnUse"><stop stop-color="#B4197C"/><stop offset="1" stop-color="#373AAC"/></linearGradient><linearGradient id="paint7_linear" x1="4.855" y1="13.197" x2="9.235" y2="14.749" gradientUnits="userSpaceOnUse"><stop stop-color="#FFCB00"/><stop offset="1" stop-color="#D12F5F"/></linearGradient><linearGradient id="paint8_linear" x1="5.342" y1="9.018" x2="8.802" y2="12.129" gradientUnits="userSpaceOnUse"><stop stop-color="#FFCF00"/><stop offset="1" stop-color="#ED743B"/></linearGradient></defs></svg>
